public/editor-src/editor/icons/editor/woo-attributes.svg

<svg id="nc-woo-additional" viewBox="0 0 16 16">
    <g stroke="none" stroke-width="1" fill-rule="evenodd">
    <path
        d="M6,13 C6.55228475,13 7,13.4477153 7,14 C7,14.5522847 6.55228475,15 6,15 L1,15 C0.44771525,15 6.76353751e-17,14.5522847 0,14 C-6.76353751e-17,13.4477153 0.44771525,13 1,13 L6,13 Z M15,13 C15.5522847,13 16,13.4477153 16,14 C16,14.5522847 15.5522847,15 15,15 L10,15 C9.44771525,15 9,14.5522847 9,14 C9,13.4477153 9.44771525,13 10,13 L15,13 Z M6,9 C6.55228475,9 7,9.44771525 7,10 C7,10.5522847 6.55228475,11 6,11 L1,11 C0.44771525,11 6.76353751e-17,10.5522847 0,10 C-6.76353751e-17,9.44771525 0.44771525,9 1,9 L6,9 Z M15,9 C15.5522847,9 16,9.44771525 16,10 C16,10.5522847 15.5522847,11 15,11 L10,11 C9.44771525,11 9,10.5522847 9,10 C9,9.44771525 9.44771525,9 10,9 L15,9 Z M15,1 C15.5522847,1 16,1.44771525 16,2 L16,6 C16,6.55228475 15.5522847,7 15,7 L1,7 C0.44771525,7 6.76353751e-17,6.55228475 0,6 L0,2 C-6.76353751e-17,1.44771525 0.44771525,1 1,1 L15,1 Z"
        fill="currentColor"
        fill-rule="nonzero"
    ></path>
    </g>
</svg>

<svg viewBox="0 0 16 16"><path fill="currentColor" fill-rule="nonzero" d="M6 13a1 1 0 0 1 0 2H1a1 1 0 0 1 0-2h5Zm9 0a1 1 0 0 1 0 2h-5a1 1 0 0 1 0-2h5ZM6 9a1 1 0 1 1 0 2H1a1 1 0 0 1 0-2h5Zm9 0a1 1 0 0 1 0 2h-5a1 1 0 0 1 0-2h5Zm0-8a1 1 0 0 1 1 1v4a1 1 0 0 1-1 1H1a1 1 0 0 1-1-1V2a1 1 0 0 1 1-1h14Z"/></svg>
